shot/img/icons/mail.svg

<svg width="19" height="11" viewBox="0 0 19 11" fill="none" xmlns="http://www.w3.org/2000/svg">
<path d="M0 1.36719V9.2335L4.72794 5.30519L0 1.36719Z" fill="white"/>
<path d="M8.61668 5.87324C9.10129 6.00804 9.50315 5.91176 9.91685 5.57477L16.796 0C14.3257 0 11.8553 0 9.39677 0H5.99267C4.38517 0 2.77767 0 1.15836 0L1.70206 0.442865C3.81781 2.16633 5.94538 3.88021 8.07296 5.59404C8.22661 5.71921 8.42755 5.8251 8.60485 5.87324H8.61668Z" fill="white"/>
<path d="M8.19118 7.77969C7.52927 7.66415 6.93827 7.38495 6.4182 6.96131L6.02814 6.64355L1.28839 10.5816C5.47262 10.5816 9.65683 10.5816 13.8292 10.5816H16.8078L11.9381 6.64355C11.808 6.75909 11.6662 6.86503 11.5362 6.97094C10.5906 7.73158 9.46772 8.00114 8.19118 7.77969Z" fill="white"/>
<path d="M13.711 5.28571L18.4744 9.24293C18.4744 8.70374 18.4744 8.1742 18.4744 7.63502V1.31885L13.711 5.27607V5.28571Z" fill="white"/>
</svg>

<svg width="19" height="11" fill="none" xmlns="http://www.w3.org/2000/svg"><path d="M0 1.367v7.866l4.728-3.928L0 1.367zm8.617 4.506c.484.135.886.039 1.3-.298L16.796 0H1.158l.544.443a1538.45 1538.45 0 006.371 5.151c.154.125.355.231.532.28h.012zM8.191 7.78a3.811 3.811 0 01-1.773-.819l-.39-.317-4.74 3.938h15.52l-4.87-3.938c-.13.115-.272.221-.402.327-.945.76-2.068 1.03-3.345.809zm5.52-2.494l4.763 3.957V1.319l-4.763 3.957v.01z" fill="#fff"/></svg>
